assets/media/icons/brands/amd.svg

<?xml version="1.0" standalone="no"?>
<!DOCTYPE svg PUBLIC "-//W3C//DTD SVG 1.0//EN" "http://www.w3.org/TR/2001/REC-SVG-20010904/DTD/svg10.dtd">
<svg xmlns="http://www.w3.org/2000/svg" xmlns:xlink="http://www.w3.org/1999/xlink" id="body_1" width="1800" height="1200">

<g transform="matrix(1.7307694 0 0 1.7307694 207.6923 433.6705)">
	<g>
	</g>
    <path d="M187.888 178.122L143.52 178.122L129.947 145.384L56.003 145.384L43.636997 178.12201L0 178.12201L66.667 12.776L114.428 12.776L187.888 178.122zM91.155 52.286L66.912 116.53L117.825 116.53zM349.056 12.776001L384.936 12.776001L384.936 178.122L343.717 178.122L343.717 74.842L299.109 126.719L292.808 126.719L248.20302 74.842L248.20302 178.12L206.98401 178.12L206.98401 12.776L242.86401 12.776L295.95602 74.112zM489.375 12.776001C 549.739 12.776001 580.766 50.349003 580.766 95.685C 580.766 143.202 550.708 178.122 484.766 178.122L484.766 178.122L416.39697 178.122L416.39697 12.776zM457.613 147.817L484.519 147.817C 525.976 147.817 538.34204 119.688 538.34204 95.44C 538.34204 67.07201 523.06604 43.077003 484.03406 43.077003L484.03406 43.077003L457.61206 43.077003L457.61206 147.817zM800 0L800 189.21L748.028 137.23502L748.028 51.981L662.76904 51.981L610.797 0zM609.2 190.802L684.089 190.802L737.594 137.296L662.708 137.296L662.708 62.397L609.2 115.903z" stroke="none" fill="#000000" fill-rule="nonzero" />
</g>
</svg>

<svg xmlns="http://www.w3.org/2000/svg" height="800" width="1200" viewBox="-120 -47.7005 1040 286.203"><path d="M187.888 178.122H143.52l-13.573-32.738H56.003l-12.366 32.738H0L66.667 12.776h47.761zM91.155 52.286L66.912 116.53h50.913zm257.901-39.51h35.88v165.346h-41.219V74.842l-44.608 51.877h-6.301l-44.605-51.877V178.12h-41.219V12.776h35.88l53.092 61.336zm140.319 0c60.364 0 91.391 37.573 91.391 82.909 0 47.517-30.058 82.437-96 82.437h-68.369V12.776zm-31.762 135.041h26.906c41.457 0 53.823-28.129 53.823-52.377 0-28.368-15.276-52.363-54.308-52.363h-26.422v104.74zM800 0v189.21l-51.972-51.975V51.981h-85.259L610.797 0zM609.2 190.802h74.889l53.505-53.506h-74.886V62.397L609.2 115.903z"/></svg>
